svg/furkot/mapbox-maki/bakery.svg

<svg viewBox="0 0 512 512" xmlns="http://www.w3.org/2000/svg"><path d="m180.705 166.186 24.096 174.681s0 34.133 34.133 34.133h34.133c34.134 0 34.134-34.133 34.134-34.133l24.094-174.681c0-47.186-75.295-47.186-75.295-47.186s-75.4 0-75.295 47.186zm-61.239 21.081c-51.199 0-51.199 34.133-51.199 34.133l34.133 136.534h51.2c25.771 0 27.105-26.103 27.105-26.103l-27.105-144.564zm-68.267 85.333s-21.079-1.004-36.139 14.056c-15.06 15.057-15.06 30.117-15.06 30.117v75.293h30.12c38.147 0 38.147-34.132 38.147-34.132zm341.335-85.333c51.199 0 51.199 34.133 51.199 34.133l-34.133 136.534h-51.2c-25.771 0-27.105-26.103-27.105-26.103l27.105-144.564zm68.267 85.333s21.081-1.004 36.139 14.056c15.06 15.057 15.06 30.117 15.06 30.117v75.293h-30.118c-38.149 0-38.149-34.132-38.149-34.132z"/></svg>

<svg viewBox="0 0 512 512" xmlns="http://www.w3.org/2000/svg"><path d="M 180.705 166.186 L 204.801 340.867 C 204.801 340.867 204.801 375 238.934 375 L 273.067 375 C 307.201 375 307.201 340.867 307.201 340.867 L 331.295 166.186 C 331.295 119 256 119 256 119 C 256 119 180.6 119 180.705 166.186 Z M 119.466 187.267 C 68.267 187.267 68.267 221.4 68.267 221.4 L 102.4 357.934 L 153.6 357.934 C 179.371 357.934 180.705 331.831 180.705 331.831 L 153.6 187.267 L 119.466 187.267 Z M 51.199 272.6 C 51.199 272.6 30.12 271.596 15.06 286.656 C 0 301.713 0 316.773 0 316.773 L 0 392.066 L 30.12 392.066 C 68.267 392.066 68.267 357.934 68.267 357.934 L 51.199 272.6 Z M 392.534 187.267 C 443.733 187.267 443.733 221.4 443.733 221.4 L 409.6 357.934 L 358.4 357.934 C 332.629 357.934 331.295 331.831 331.295 331.831 L 358.4 187.267 L 392.534 187.267 Z M 460.801 272.6 C 460.801 272.6 481.882 271.596 496.94 286.656 C 512 301.713 512 316.773 512 316.773 L 512 392.066 L 481.882 392.066 C 443.733 392.066 443.733 357.934 443.733 357.934 L 460.801 272.6 Z"/></svg>
